X:1
T:James Gibb editions
T:O sacrum convivium - Byrd
T:#
%%score [ 1 2 3 4 ]
L:1/8
Q:1/4=90
M:4/4
K:D
V:1 treble nm="Soprano" snm="S"
V:2 treble nm="Alto" snm="A"
V:3 treble-8 nm="Tenor" snm="T"
V:4 bass nm="Bass" snm="B"
V:1
"^O sacrum convivium""^William Byrd\n (1543-1623)" A4 B4 | A2 d2 c3 c | d4 z4 | z4 A4 | %4
w: O sa-|crum con- vi- vi-|um,|O|
[M:4/4] B4 A2 e2 | ^d3 d e4 | z8 | z2 c2 B2 d2- | d2 c2 B3 B | A4 z4 | z4 z2 c2 | B2 d4 c2 | %12
w: sa- crum con-|vi- vi- um,||in quo Chri\-|* stus su- mi-|\-tur,|in|quo Chri- stus|
 (dc BA ^GF/G/ A2- | A2) ^G2 A4 | z2 E2 ^G3 A | B2 c2 d2 c2 | B4 z2 A2- | A2 G2 F2 F2 | G4 E2 e2- | %19
w: su\- * * * * * * *|* mi- tur;|re- co- li-|tur me- mo- ri-|a pas\-|* si- o- nis|e- jus, pas\-|
 e2 d2 c2 c2 | d4 B4 | c3 B A2 A2 | B8 | ^G4 z4 | z8 | z8 | z4 z2 B2- | B2 c2 d2 B2 | %28
w: * si- o- nis|e- jus,|pas- si- o- nis|e-|jus:|||mens|* im- ple- tur|
 c2 d2 B2 (c2- | cB B4) ^A2 | B4 z4 | z4 z2 A2- | A2 d2 c2 B2 | A3 G F4 | z2 B4 d2 | c2 B2 A3 G | %36
w: gra- ti- a, gra\-|* * * ti-|a;|et|* fu- tu- rae|glo- ri- ae,|et fu-|tu- rae glo- ri-|
 F3 A2 (^G/F/ G2) | A4 z2 d2- | d2 B2 c2 A2 | (BA A4 ^G2) | A4 A4 | B4 z2 e2- | e2 c2 d2 B2 | %43
w: ae, glo- ri\- * *|ae no\-|* bis pi- gnus|da\- * * *|tur, da-|tur, no\-|* bis pi- gnus|
 (c3 B AB cd) | e4 z2 (B2- | BA ^GF) E4 | z2 B4 ^G2 | A2 F (B2 A ^GF | ^GA Bc BA A2- | %49
w: da\- * * * * *|tur, da\-|* * * * tur,|no- bis|pi- gnus da\- * * *||
 A2 ^G2)[Q:1/4=45] !fermata!A4 ||[Q:1/4=90] A3 A A2 A2 | B3 B B2 B2 | d3 c B2 A2 | z4 e3 d | %54
w: * * tur.|Al- le- lu- ia.|Al- le- lu- ia.|Al- le- lu- ia|Al- le-|
[Q:1/4=88] c2[Q:1/4=87] B[Q:1/4=85] B2[Q:1/4=84] A[Q:1/4=82] (A2- |[Q:1/4=80] A2[Q:1/4=78] ^G2) | %56
w: lu- ia. Al- le- lu\-||
[Q:1/4=78] !fermata!A8 |] %57
w: ia.|
V:2
 z8 | D4 E4 | D2 G2 F3 F | G2 E2 F>F E2 |[M:4/4] z4 E4 | F4 E2 A2 | ^G3 G A2 F2 | ^G2 A2 E4 | %8
w: |O sa-|crum con- vi- vi-|um, con- vi- vi- um,|O|sa- crum con-|vi- vi- um, con-|vi- vi- um,|
 F2 E2 G4 | F2 (E3 DC)^D | E2 E2 D2 A2- | A2 ^G2 A3 A | D4 E4- | E2 E2 C4 | z2 A,2 E3 F | %15
w: in quo Chri-|\-stus su\- * * mi-|tur, in quo Chri\-|* stus su- mi-|tur, su\-|* mi- tur;|re- co- li-|
 ^G2 A2 F2 A2 | ^G4 z4 | z8 | z2 B4 A2 | ^G2 G2 A4 | F4 z2 E2- | E2 E2 F3 E | (^DE/F/ E4 D2) | %23
w: tur me- mo- ri-|a||pas- si-|o- nis e-|jus, pas\-|* si- o- nis|e\- * * * *|
 E4 z2 F2- | F2 ^G2 A2 F2 | (G2 F4) E2 | F8 | z2 F4 G2 | E2 D2 E3 E | D4 z2 F2- | F2 G2 A2 F2 | %31
w: jus: mens|* im- ple- tur|gra\- * ti-|a,|mens im-|ple- tur gra- ti-|a, mens|* im- ple- tur|
 G3 A F4- | F4 z4 | z4 z2 B,2- | B,2 G2 F2 D2 | E3 B, C4 | D3 F E4 | D2 (C2 B,A, B,A, | %38
w: gra- ti- a;||et|* fu- tu- rae|glo- ri- ae,|et fu- tu-|rae glo\- * * * *|
 ^G, A,2) G, A,4 | z8 | E4 C2 D2 | B,2 (E3 D CB, | A,^G, A,4 G,2) | A,2 A4 F2 | G2 E2 (F>E DC) | %45
w: * * ri- ae||no- bis pi-|gnus da\- * * *||tur, no- bis|pi- gnus da\- * * *|
 B,4 (B,2 C2) | B,4 z2 E2- | E2 ^D2 E2 B,2 | E4 E2 (E2- | ED B,2) !fermata!C4 || F3 E F2 C2 | %51
w: tur, da\- *|tur, no\-|* bis pi- gnus|da- tur, da\-|* * * tur.|Al- le- lu- ia.|
 z G2 F E2 ^D2 | z2 D3 E (F2 | G2 F2) E4 | E4 C2 (E2- | ED B,2) | !fermata!C8 |] %57
w: Al- le- lu- ia.|Al- le- lu\-|* * ia.|Al- le- lu\-||ia.|
V:3
 z8 | z4 A4 | B4 A2 d2 | c3 c d2 c(e- |[M:4/4][K:treble-8] ed/c/ d)B c4 | B4 c4 | B2 e2 ^d3 d | %7
w: |O|sa- crum con-|vi- vi- um, con- vi\-|* * * * vi- um,|O sa-|crum con- vi- vi-|
 e4 z4 | z2 A2 B2 d2- | d2 c2 B2 A2 | B4 B2 c2 | d4 z2 c2 | B2 d4 c2 | B3 B A4- | A4 z4 | %15
w: um,|in quo Chri\-|* stus su- mi-|tur, su- mi-|tur, in|quo Chri- stus|su- mi- tur;||
 z4 z2 A2 | e3 d c2 (AB | cd) e4 ^d2 | e2 e3 d c2- | c2 B2 (A>B cA) | B2 B3 A ^G2 | ^G2 (A4 F2- | %22
w: re-|co- li- tur me\- *|* * mo- ri-|a pas- si- o\-|* nis e\- * * *|jus, pas- si- o-|nis e\- *|
 FG AG) F4 | E3 F G2 A2 | B3 B F4 | z2 B4 c2 | d2 A2 (c2 d2 | B2 ^A2 B4 | z8 | z2 B4 c2 | %30
w: * * * * jus:|mens im- ple- tur|gra- ti- a,|mens im-|ple- tur gra\- *|* ti- a,||mens im-|
 d2 B2 (c2 d2- | d2) c2 d4 | z2 A4 g2 | f2 e2 d3 c | B8 | z4 z2 A2- | A2 d2 c2 B2 | A3 G F4 | %38
w: ple- tur gra\- *|* ti- a;|et fu-|tu- rae glo- ri|ae,|et|* fu- tu- rae|glo- ri- ae|
 z4 e4- | e2 c2 d2 B2 | c3 d e2 f2) | d (e2 d cB AB) | c2 z2 z2 e2- | e2 c2 d2 A2 | %44
w: no\-|* bis pi- gnus|da\- * * *|tur, da\- * * * * *|tur, no\-|* bis pi- gnus|
 (B>A Bc dc BA) | ^G2 z B2 G A2 | F B2 F G2 E2 | F4 E2 e2- | e2 B2 c2 A2 | B4 !fermata!A4 || %50
w: da\- * * * * * * *|tur, no- bis pi-|gnus, no- bis pi- gnus|da- tur, no\-|* bis pi- gnus|da- tur.|
 d3 c d2 A2 | e2 E (F G2) F2 | B3 c d2 A2 | B3 d c4 | A2 e4 c2 | B4 | !fermata!A8 |] %57
w: Al- le- lu- ia.|Al- le- lu\- * ia.|Al- le- lu- ia.|Al- le- lu-|ia. Al- le-|lu-|ia.|
V:4
 z8 | z8 | z4 D,4 | E,4 D,2 A,2 |[M:4/4] ^G,3 G, A,4 | z8 | E,4 F,4 | E,2 A,2 ^G,3 G, | A,4 z4 | %9
w: ||O|sa- crum con-|vi- vi- um,||O sa-|crum con- vi- vi-|um,|
 z4 z2 F,2 | E,2 G,4 F,2 | B,3 B, A,4 | (G,3 F, E,4- | E,2) E,2 A,,4- | A,,4 z4 | z8 | %16
w: in|quo Chri- stus|su- mi- tur,|su\- * *|* mi- tur;|||
 z2 E,2 A,3 G, | F,2 E,2 A,2 B,2 | E,8- | E,4 z4 | z4 E,3 D, | C,2 C,2 D,4 | B,,8 | z2 B,4 C2 | %24
w: re- co- li-|tur me- mo- ri-|a||pas- si-|o- nis e-|jus:|mens im-|
 D2 B,2 (C2 D2 | B,3 A, G,2) A,2 | F,2 (F,4 B,,2 | G,2 F,2 B,,2 E,2- | E,2 F,2 G,2 E,2 | %29
w: ple- tur gra\- *|* * * ti-|a, gra\- *|* ti- a, mens|* im- ple- tur|
 (F,2 G,2 E,G,) F,2 | B,,4 F,4 | E,4 D,4- | D,4 z4 | z8 | z2 B,,4 B,2 | A,2 G,2 F,3 E, | %36
w: gra\- * * * ti-|a, gra-|ti- a;|||et fu-|tu- rae glo- ri-|
 D,4 E,3 G, | F,2 E,2 D,3 C, | B,,4 A,,3 A,, | ^G,,2 A,,2 B,,4 | A,,2 A,4 F,2 | G,2 E,2 A,3 ^G, | %42
w: ae, et fu-|tu- rae glo- ri-|ae no- bis|pi- gnus da-|tur, no- bis|pi- gnus da\- *|
 A,B, CA, B,4) | A,4 (F,4 | E,4) D,4 | z2 E,4 C,2 | D,2 B,,2 (E,>D, C,B,, | A,,2 B,,2) E,4- | %48
w: |tur, da\-|* tur,|no- bis|pi- gnus da\- * * *|* * tur,|
 E,4 E,4- | E,4 !fermata!A,,4 || z8 | E,3 D, E,2 B,,2 | z2 G,4 F,2 | E,2 D,2 z2 A,2- | %54
w: * da\-|* tur.||Al- le- lu- ia.|Al- le-|lu- ia. Al\-|
 A,2 ^G,2 (A,4 | E,4) | !fermata!A,,8 |] %57
w: * le- lu\-||ia.|

